app/assets/svg/walk__svg.svg

<svg width="60" height="60" viewBox="0 0 60 60" fill="none" xmlns="http://www.w3.org/2000/svg">
<rect width="60" height="60" rx="30" fill="#FAC663"/>
<path d="M45.2157 20.3032C44.9972 20.1284 44.6911 20.0867 44.4166 20.1694C43.3955 20.4766 42.6272 21.0887 42.2578 21.4286C41.5756 21.2341 40.8382 21.2341 40.1559 21.4286C39.7821 21.0846 38.9996 20.4619 37.9601 20.1583C37.6502 20.068 37.3142 20.1577 37.1031 20.3928C36.924 20.5923 36.8787 20.8677 36.9656 21.1144C37.2248 21.8504 37.6446 23.0097 37.7917 23.4153C37.7264 23.6176 37.6866 23.8296 37.6731 24.0479C37.6602 24.2573 37.6641 24.4579 37.6825 24.6501L37.3923 25.221C37.2021 25.595 36.8217 25.8546 36.38 25.911C34.7736 26.1166 31.6468 26.5315 28.753 27.002C25.0074 27.611 23.5235 28.012 22.8871 28.2583C22.344 27.493 21.5704 26.8696 20.6703 26.4791C19.3032 25.886 17.016 24.5962 17.0577 22.6212C17.0955 20.8339 17.8243 19.7782 18.429 19.2071C18.6871 18.9634 18.8226 18.6278 18.8006 18.2865C18.7786 17.9446 18.6005 17.6257 18.3119 17.4115C17.7539 16.9973 16.9564 17.0696 16.4964 17.5758C14.9653 19.2605 14.5986 21.5936 14.5163 22.8344C14.4333 24.0852 14.8294 25.2424 15.6935 26.274C16.3133 27.0137 17.1592 27.6729 18.2077 28.2333C19.2243 28.7766 19.9591 29.6437 20.2767 30.675C20.3046 30.7657 20.3178 30.8597 20.3158 30.9539L20.3057 31.4306C20.3008 31.6637 20.2809 31.8964 20.246 32.1273L19.8976 34.4339C19.7609 35.3389 19.1348 36.1 18.2586 36.5179C17.6498 36.8083 17.3019 37.4264 17.3929 38.0558L18.0296 42.459C18.0625 42.6869 18.2723 42.8571 18.5202 42.8571H21.1393C21.2452 42.8571 21.3508 42.831 21.4371 42.7741C21.6131 42.658 21.6843 42.4578 21.6296 42.275L21.6014 42.1806C21.3957 41.4937 20.8325 40.9677 20.1167 40.7655L19.9936 39.8235C19.9591 39.5593 20.1208 39.3068 20.3873 39.2085L22.8895 38.2854C22.8891 38.31 22.8882 38.3343 22.8863 38.3579C22.8861 38.3607 22.8859 38.3636 22.8857 38.3665C22.8611 38.8019 22.8426 39.1941 22.8308 39.5322C22.8145 39.9964 23.0058 40.4459 23.3599 40.7743L25.4601 42.7225C25.5528 42.8087 25.6788 42.857 25.81 42.857H28.8465C29.1078 42.857 29.3281 42.6587 29.3421 42.4168C29.3912 41.5749 28.7522 40.8462 27.8527 40.7197L26.9843 40.5977L26.6256 40.0749C26.4493 39.8179 26.455 39.4894 26.6402 39.2378L29.0087 36.0206C29.7285 35.8144 32.7642 35.0003 34.5443 35.386C34.5677 35.6034 34.6324 35.8161 34.7367 36.0148L38.1895 42.5988C38.2724 42.7568 38.4452 42.857 38.6346 42.857H40.9832C41.0872 42.857 41.1911 42.832 41.2767 42.7771C41.4519 42.6645 41.5263 42.4684 41.4772 42.2866L41.3178 41.695C41.1639 41.124 40.7043 40.6861 40.1249 40.5148L40.7 35.8742C40.724 35.6805 40.786 35.4929 40.8834 35.3202C41.241 34.6863 41.9435 33.4678 42.6254 32.4391C43.1613 31.6307 43.5061 30.7012 43.6224 29.7511C43.7994 28.3054 44.1463 26.459 44.2323 26.0096C44.6135 25.5036 44.7889 24.8337 44.7406 24.0479C44.7271 23.8296 44.6873 23.6175 44.622 23.4153C44.7703 23.0063 45.1959 21.8307 45.4546 21.0958C45.5547 20.8116 45.4633 20.5013 45.2157 20.3032ZM20.0214 38.3551C19.3378 38.6073 18.9222 39.2566 19.0108 39.934L19.1763 41.2008C19.2038 41.4112 19.383 41.5768 19.6099 41.6016C19.8975 41.633 20.1552 41.7548 20.3471 41.9387H18.9533L18.3741 37.9336C18.3386 37.6884 18.4742 37.4476 18.7113 37.3345C19.8107 36.81 20.592 35.8503 20.842 34.7357C21.7328 35.7102 22.3679 36.631 22.6769 37.3754L20.0214 38.3551ZM41.7821 31.958C41.085 33.0096 40.3708 34.2483 40.0071 34.8931C39.8523 35.1674 39.7545 35.4623 39.7165 35.7693L39.4452 37.9592L38.8473 35.2141C38.7907 34.954 38.8554 34.6822 39.0249 34.4684L40.3886 32.748C41.1424 31.797 41.4854 30.6266 41.3544 29.4524C41.3263 29.2001 41.0829 29.0169 40.8111 29.0429C40.5392 29.069 40.3415 29.2947 40.3697 29.5469C40.4753 30.4936 40.1988 31.4372 39.591 32.204L38.2273 33.9244C37.8929 34.3462 37.7652 34.8826 37.877 35.3959L39.0944 40.9862C39.1411 41.2004 39.344 41.3545 39.5797 41.3545C39.9482 41.3545 40.2681 41.5861 40.3575 41.9178L40.3632 41.9389H38.9444L35.6268 35.613C35.5424 35.4519 35.5091 35.2727 35.5307 35.0947L36.0216 31.0537C36.0523 30.8017 35.8568 30.5744 35.5852 30.546C35.3132 30.5177 35.0686 30.6989 35.0379 30.9509L34.6113 34.4627C32.9957 34.1791 30.7753 34.6181 29.5142 34.9299C29.6164 34.314 29.4494 33.671 29.0171 33.1532L28.2939 32.2866C28.1265 32.0861 27.8157 32.0493 27.5994 32.2046C27.3833 32.3598 27.3437 32.6483 27.5111 32.8488L28.2343 33.7154C28.6388 34.2 28.6602 34.8656 28.2876 35.3718L25.8227 38.7199C25.4139 39.2753 25.4012 40.0006 25.7904 40.568L26.2699 41.267C26.3467 41.3789 26.472 41.4546 26.6134 41.4745L27.7043 41.6278C27.928 41.6592 28.1147 41.7761 28.2299 41.9388H26.015L24.0598 40.1251C23.9002 39.977 23.8129 39.7718 23.8202 39.5621C23.8318 39.2311 23.8499 38.8465 23.8741 38.4188C23.9838 36.9488 22.4352 35.0436 21.5017 34.0381C21.3372 33.8608 21.2493 33.6353 21.2542 33.4029L21.31 30.7609C21.311 30.7152 21.2285 30.4227 21.2285 30.4227C20.8399 29.1608 19.9426 28.1006 18.7018 27.4376C15.9088 25.945 15.4214 24.1412 15.5043 22.8908C15.6786 20.264 16.6749 18.8041 17.2533 18.1677C17.3646 18.0452 17.558 18.028 17.6934 18.1286C17.7895 18.1999 17.8092 18.2925 17.8123 18.3413C17.8154 18.3898 17.8079 18.4831 17.7227 18.5636C16.9921 19.2534 16.112 20.5141 16.0678 22.6032C16.0151 25.0976 18.6659 26.6234 20.2507 27.3109C21.1 27.6793 21.811 28.3014 22.2526 29.0625C22.2526 29.0625 22.2757 29.1022 22.2802 29.1091C22.3531 29.2218 22.475 29.3004 22.6142 29.3245C22.7556 29.3491 22.9019 29.3152 23.0144 29.2319C23.5296 28.8504 27.3746 27.9899 36.5154 26.8207C37.1697 26.737 37.7427 26.4018 38.1068 25.9046C38.1985 26.0417 38.3034 26.1687 38.4228 26.2832C38.9242 26.764 39.6428 27.0167 40.5051 27.0167C40.5372 27.0167 41.8031 27.0157 41.8031 27.0157C41.8059 27.0157 41.8087 27.0157 41.8116 27.0156C42.2771 27.0256 42.7022 26.963 43.0765 26.8324C42.9355 27.6242 42.7528 28.7156 42.6387 29.6474C42.5387 30.4646 42.2425 31.2636 41.7821 31.958ZM43.6354 23.2558C43.595 23.3576 43.5942 23.4708 43.6361 23.5748C43.7018 23.7382 43.7408 23.915 43.7522 24.1002C43.7938 24.7742 43.6302 25.3083 43.2793 25.6448C42.9562 25.9548 42.4553 26.1111 41.8313 26.0975C41.8265 26.0974 41.8218 26.0974 41.8171 26.0974C41.8124 26.0974 40.5906 26.0964 40.5675 26.0978C39.9505 26.1082 39.4551 25.9524 39.1344 25.6449C38.7835 25.3083 38.6199 24.7742 38.6614 24.1004C38.6728 23.9152 38.712 23.7383 38.7776 23.5749C38.819 23.4718 38.8187 23.3597 38.7793 23.2586C38.7789 23.2576 38.7786 23.2566 38.7782 23.2555C38.731 23.1256 38.3252 22.0078 38.0238 21.1602C38.9904 21.5517 39.6313 22.2497 39.6378 22.2568C39.7771 22.4119 40.0093 22.4644 40.21 22.3861C40.8436 22.1389 41.5702 22.1389 42.2037 22.3861C42.4034 22.4641 42.6356 22.4116 42.7751 22.2577C42.7823 22.2499 43.4233 21.5517 44.3899 21.1602C44.0882 22.0085 43.6819 23.1278 43.6354 23.2558Z" fill="#FFFDFB"/>
<path d="M38.7782 23.2555L38.7793 23.2586C39.07 22.5 39.07 22.5 39.6378 22.2568C39.6313 22.2497 38.9904 21.5517 38.0238 21.1602C38.3252 22.0078 38.731 23.1256 38.7782 23.2555Z" fill="#FFFDFB"/>
<path d="M44.3899 21.1602C43.4233 21.5517 42.7823 22.2499 42.7751 22.2577C43.5955 22.4972 43.6048 22.6745 43.6343 23.2363L43.6354 23.2558C43.6819 23.1278 44.0882 22.0085 44.3899 21.1602Z" fill="#FFFDFB"/>
<path d="M17.2533 18.1677C16.6749 18.8041 15.6786 20.264 15.5043 22.8908L16.0678 22.6032C16.112 20.5141 16.9921 19.2534 17.7227 18.5636C17.8079 18.4831 17.8154 18.3898 17.8123 18.3413C17.8092 18.2925 17.7895 18.1999 17.6934 18.1286C17.558 18.028 17.3646 18.0452 17.2533 18.1677Z" fill="#FFFDFB"/>
</svg>

<svg width="60" height="60" fill="none" xmlns="http://www.w3.org/2000/svg"><rect width="60" height="60" rx="30" fill="#FAC663"/><path d="M45.216 20.303a.88.88 0 0 0-.8-.134c-1.02.308-1.789.92-2.158 1.26a3.859 3.859 0 0 0-2.102 0c-.374-.344-1.156-.967-2.196-1.27a.838.838 0 0 0-.857.234.717.717 0 0 0-.137.721c.259.736.679 1.896.826 2.301a2.574 2.574 0 0 0-.119.633c-.013.21-.009.41.01.602l-.29.571c-.19.374-.571.634-1.013.69-1.606.206-4.733.62-7.627 1.091-3.746.609-5.23 1.01-5.866 1.256a5.318 5.318 0 0 0-2.217-1.779c-1.367-.593-3.654-1.883-3.612-3.858.038-1.787.766-2.843 1.371-3.414.258-.244.394-.58.372-.92a1.19 1.19 0 0 0-.49-.875 1.37 1.37 0 0 0-1.815.164c-1.53 1.684-1.897 4.018-1.98 5.258-.083 1.251.313 2.408 1.178 3.44.62.74 1.465 1.399 2.514 1.96 1.016.543 1.751 1.41 2.069 2.441.028.09.04.185.039.279l-.01.477a5.424 5.424 0 0 1-.06.696l-.348 2.307c-.137.905-.763 1.666-1.64 2.084-.608.29-.956.908-.865 1.538l.637 4.403a.484.484 0 0 0 .49.398h2.62a.542.542 0 0 0 .297-.083.443.443 0 0 0 .193-.499l-.029-.094c-.205-.687-.768-1.213-1.484-1.415l-.123-.942a.582.582 0 0 1 .393-.615l2.503-.924a1.138 1.138 0 0 1-.004.082c-.025.435-.043.827-.055 1.165-.017.464.175.914.529 1.242l2.1 1.948a.514.514 0 0 0 .35.135h3.037c.26 0 .481-.198.495-.44.05-.842-.59-1.57-1.49-1.697l-.868-.122-.358-.523a.714.714 0 0 1 .014-.837l2.369-3.217c.72-.207 3.755-1.02 5.535-.635.024.217.088.43.193.629l3.453 6.584a.5.5 0 0 0 .445.258h2.348a.544.544 0 0 0 .294-.08.444.444 0 0 0 .2-.49l-.16-.592c-.153-.571-.613-1.009-1.192-1.18l.575-4.64c.024-.194.086-.382.183-.555a50.946 50.946 0 0 1 1.742-2.88c.536-.81.881-1.739.997-2.689.177-1.446.524-3.292.61-3.741.382-.506.557-1.176.509-1.962a2.573 2.573 0 0 0-.119-.633c.148-.409.574-1.584.833-2.32a.705.705 0 0 0-.24-.792ZM20.02 38.355c-.683.252-1.099.902-1.01 1.579l.165 1.267c.028.21.207.376.434.4.288.032.545.154.737.338h-1.394l-.579-4.005a.578.578 0 0 1 .337-.6c1.1-.524 1.881-1.484 2.131-2.598.89.974 1.526 1.895 1.835 2.64l-2.656.98Zm21.761-6.397a51.781 51.781 0 0 0-1.775 2.935c-.155.274-.252.57-.29.876l-.272 2.19-.598-2.745a.892.892 0 0 1 .178-.746l1.364-1.72a4.482 4.482 0 0 0 .965-3.296c-.028-.252-.271-.435-.543-.41-.272.027-.47.253-.441.505.105.947-.171 1.89-.779 2.657l-1.364 1.72a1.76 1.76 0 0 0-.35 1.472l1.217 5.59c.047.214.25.369.486.369.368 0 .688.231.778.563l.005.02h-1.419l-3.317-6.325a.883.883 0 0 1-.096-.518l.49-4.041c.031-.252-.164-.48-.436-.508-.272-.028-.516.153-.547.405l-.427 3.512c-1.615-.284-3.836.155-5.097.467a2.197 2.197 0 0 0-.497-1.777l-.723-.866a.521.521 0 0 0-.695-.082.437.437 0 0 0-.088.644l.723.866c.405.485.426 1.15.054 1.657l-2.465 3.348a1.577 1.577 0 0 0-.033 1.848l.48.699a.5.5 0 0 0 .343.207l1.091.154a.77.77 0 0 1 .526.31h-2.215l-1.955-1.813a.736.736 0 0 1-.24-.563c.012-.33.03-.715.054-1.143.11-1.47-1.439-3.375-2.372-4.38a.904.904 0 0 1-.248-.636l.056-2.642a3.425 3.425 0 0 0-.081-.338c-.39-1.262-1.286-2.322-2.527-2.985-2.793-1.493-3.28-3.297-3.198-4.547.175-2.627 1.17-4.087 1.75-4.723a.332.332 0 0 1 .44-.04.285.285 0 0 1 .118.213.277.277 0 0 1-.09.223c-.73.69-1.61 1.95-1.654 4.04-.053 2.494 2.598 4.02 4.183 4.707a4.287 4.287 0 0 1 2.03 1.798.498.498 0 0 0 .333.215.525.525 0 0 0 .4-.092c.516-.382 4.36-1.242 13.501-2.411a2.327 2.327 0 0 0 1.592-.916c.092.137.196.264.316.378.501.481 1.22.734 2.082.734l1.298-.001h.009a3.6 3.6 0 0 0 1.265-.184 56.188 56.188 0 0 0-.438 2.815 5.39 5.39 0 0 1-.857 2.311Zm1.853-8.702a.428.428 0 0 0 .001.319c.066.163.105.34.116.525.042.674-.122 1.208-.473 1.545-.323.31-.824.466-1.448.453h-.014c-.005 0-1.226-.002-1.25 0-.617.01-1.112-.146-1.433-.453-.35-.337-.514-.87-.473-1.545.012-.185.051-.362.117-.525a.428.428 0 0 0 .001-.316v-.003c-.048-.13-.454-1.248-.755-2.096a4.92 4.92 0 0 1 1.614 1.097.52.52 0 0 0 .572.13 2.773 2.773 0 0 1 1.994 0c.2.077.432.025.571-.13.007-.007.648-.705 1.615-1.097-.302.849-.708 1.968-.755 2.096Z" fill="#FFFDFB"/><path d="m38.778 23.256.001.003c.291-.759.291-.759.859-1.002a4.92 4.92 0 0 0-1.614-1.097c.301.848.707 1.966.754 2.096ZM44.39 21.16c-.967.392-1.608 1.09-1.615 1.098.82.24.83.416.86.978v.02c.047-.128.453-1.247.755-2.096ZM17.253 18.168c-.578.636-1.574 2.096-1.749 4.723l.564-.288c.044-2.089.924-3.35 1.655-4.04a.277.277 0 0 0 .09-.222.285.285 0 0 0-.12-.212.332.332 0 0 0-.44.039Z" fill="#FFFDFB"/></svg>
